X:1
T:Sharjah, 11.10.11.10 D
T:Sharjah, 11.10.11.10 D
T:Raymond DeWitt Mallary, 1897
T:Public Domain Courtesy of the Cyber Hymnal™
C:Raymond DeWitt Mallary, 1897
Z:Public Domain
Z:Courtesy of the Cyber Hymnal™
%%score ( 1 2 ) ( 3 4 )
L:1/8
Q:1/4=115
M:4/4
K:F
V:1 treble 
V:2 treble 
V:3 bass 
V:4 bass 
V:1
 F4 A2 F2 | [Gc]6 [GB]2 | [FA]2 F2 [FA]2 [EG]2 | [EG]2 F6 | A4 [EA]2 [EA]2 | [Dd]6 [Fc]2 | %6
 [Fd]2 [Fc]2 B2 [FA]2 | [EG]8 | [FA]4 [GA]2 [GA]2 | [Af]6 [Af]2 | [Ff]2 [Ff]2 [Fe]2 [Fd]2 | %11
 [Ac]4 [FA]4 | F4 [FG]2 [FG]2 | [FA]2 [Gc]2 [FB]2 [FA]2 | [EA]6 [EG]2 | F8 | c4 [Ac]2 [Af]2 | c8 | %18
 c4 [Ec]2 [Gc]2 | [Fc]2 [Gc]2 [Ac]2 [Ff]2 | [Ff]4 [Ae]2 d2 | c2 B2 [FA]4 | [DG]4 [FG]2 [FA]2 | %23
 (G4 c4) | c4 [Ac]2 [Af]2 | c8 | c4 [Ec]2 [Gc]2 | [Fc]2 [Gc]2 [Ac]2 [Ff]2 | [Ff]4 [Ae]2 d2 | %29
 c2 B2 [FA]2 [GB]2 | [EA]4 [EG]4 | F8 |] %32
V:2
 F4 A2 F2 | x8 | x2 F2 x4 | x2 F6 | A4 x4 | x8 | x4 (DE) x2 | x8 | x8 | x8 | x8 | x8 | F4 x4 | x8 | %14
 x8 | F8 | (F2 G2) x4 | (F2 G2 A4) | (G2 F2) x4 | x8 | x6 (FG) | (FC) (DE) x4 | x8 | E8 | %24
 (F2 G2) x4 | (G2 G2 A4) | (G2 F2) x4 | x8 | x6 (FG) | (FC) (DE) x4 | x8 | F8 |] %32
V:3
 F,4 A,2 F,2 | [E,C]6 [E,C]2 | [F,C]2 [A,C]2 C2 [C,B,]2 | [F,B,]2 [F,A,]6 | A,4 [G,^C]2 [G,C]2 | %5
 [F,A,]6 [A,,F,]2 | [B,,F,]2 (F,C) [G,,B,]2 [F,,C]2 | [C,C]8 | [F,C]4 [E,^C]2 [E,C]2 | %9
 [D,D]6 [D,D]2 | [B,D]2 [B,D]2 [B,C]2 (DE) | [F,F]4 (C2 A,2) | [D,A,]4 [_D,B,]2 [D,B,]2 | %13
 [C,C]2 [C,E]2 [C,D]2 [C,C]2 | [C,C]6 [C,B,]2 | [F,A,]8 | (A,2 B,2) [F,C]2 [F,C]2 | (A,2 B,2 C4) | %18
 (B,2 A,2) [C,G,]2 [C,B,]2 | [F,A,]2 [F,B,]2 [F,C]2 [F,A,]2 | D4 [CE]2 B,2 | [A,C]2 (G,C) [F,C]4 | %22
 [B,,B,]4 [=B,,D]2 [B,,D]2 | (C4 B,4) | (A,2 B,2) [F,C]2 [F,C]2 | (A,2 B,2 C4) | %26
 (B,2 A,2) [C,G,]2 [C,B,]2 | [F,A,]2 [F,B,]2 [F,C]2 [F,A,]2 | D4 [CE]2 B,2 | %29
 [A,C]2 (G,C) [F,C]2 [B,,D]2 | [C,C]4 [C,B,]4 | [F,A,]8 |] %32
V:4
 F,4 A,2 F,2 | x8 | x4 C2 x2 | x8 | A,4 x4 | x8 | x2 A,,2 x4 | x8 | x8 | x8 | x6 B,2 | x4 F,4 | %12
 x8 | x8 | x8 | x8 | F,4 x4 | F,8 | C,4 x4 | x8 | D4 B,2 x2 | x2 G,2 x4 | x8 | C,8 | F,4 x4 | F,8 | %26
 C,4 x4 | x8 | D4 B,2 x2 | x2 G,2 x4 | x8 | x8 |] %32

